!!!OTL: Das erw&auml;hlte Sch&auml;tzchen (92), S.238
!!!id: T0250
**kern
*clefG2
*k[]
*G:
{4d
=1
4g
4d
8g
8b
=2
2dd
4cc
=3
4b
4b}
=4
{8g
8b
=5
4dd
4b
4ee
=6
4dd
4cc
4a
=7
4b}
4r
=8
{4dd
=9
4b
4dd
8ee
8dd
=10
8cc
8dd
4ee}
=11
{8dd
8cc
=12
4b
4b
8dd
8b
=13
4a}
4r
=14
{8g
8a
=15
4b
4cc
4dd
=16
4ee
4dd
8cc
8a
=17
4b}
4r
==
*-
!!!minrhy: 8
!!!meters: 3/4 ]  ZZ[5
!!!cut: Das erw&auml;hlte Sch&auml;tzchen (92), S.238
!!!reg: Luxemburg
!!!trd: Singendes Volk, Esch-Alzette 1937 posth.
!!!rhy1: X_  X_X_XX  X__X_  X_X_
!!!rhy2: XX  X_X_X_  X_X_X_  X_0_
!!!key: T0250  08  G 3/4 ]  ZZ[5
!!!mod: SECHSTONSKALA DUR ?]  AMBITUS[9
!!!kad: 33623
!!!akz: 153_553_34_32_363_
!!!fot: 'a__b__c__d__e__
!!!for: 'a__b__c__aw_d__
!!!fok: '^a_^a_Va_\__^a_
!! PHRAS[AUFTAKTIG]
!!!fkt: Liebeslieder
!!!bem: Heffingen, hhh Nikolaus Ewen, 2.6.1935
!! THILL, Mathias:
!! PR[34] 2K[0] 2G[5] 3K[5] 3G[0] 4A[0] 4Ü[0] 5A[5] 6K[0] 6G[7]
!! 7K[0] 7G[0] 8A[0] MEHR[0] SI[20] ABS[44] SR[5] SP[16]
!! ST[12] 2k[5] 2g[27] 3k[9] 3g[2] 4d[2] 4ü[0] 5d[0] 6k[0] 6g[0]
!! 7k[0] 7g[0] 8d[0] mehr[0] si[45] dm[-25] sr[32] sp[14]
!! 1F[42] 2F[56] 3F[0] 4F[0] LF[0] 2P[2] 3P[0] 4P[0] TRI[0] DF[3] AB[45]
!! TF[0] U3K[0] U3[0] U4[0] U4Ü[0] U5[2] U6K[0] U6[0] U7K[0] U7[0]
!! N1[27] N2K[0] N2[9] N3K[0] N3[11] N4[13] N4Ü[0] N5[22] N6K[0] N6[16]
!!!n7k: 0] N7[0] O1[0] O2K[0] O2[0] O3K[0] O3[0] HÖ[0
!!!RNB: symbol: &auml;      = a umlaut  (UTF-8: Å„)
